!!!!SEGMENT: pl-wtm--a-40-710-94_gold-artur--czarne-oczy-oczy-czarne-oczy-twe.krn
!!!cenid: 19xx:9
!!!COM: Gold, Artur
!!!COM-rismID: pe50044903
!!!CDT: 1897/03/17-1943
!!!CNT: Polish
!!!OTL: Czarne oczy/Oczy czarne, oczy twe
!!!PDT:
!!!AGN: Secular
!!!YEC: Copyright 2022 Narodowy Instytut Fryderyka Chopina (https://polishscores.org)
!!!YEM: License CC-BY-4.0 (https://creativecommons.org/licenses/by/4.0)
!!!SMS-siglum: PL-Wtm
!!!SMS-shelfmark: A.40.710/94
!!!SMS-variant:
!!!SMS-altvar:
!!!SMS-shelfwork: W
!!!NIFC-rismSourceID: 1001213698
!!!NIFC-rismChildID: 1001213698
!!!NIFC-islandoraID: pl-wtm:96991
!!!URL-pdf-islandora: https://repozytorium.nifc.pl/islandora/object/pl-wtm%3A96991/datastream/PDF/view
!!!URL-scan: https://polish.musicsources.pl/pl/lokalizacje/galeria/druki-muzyczne/22028/2 @EN{Scan on Polish Music Sources Website} @PL{Skany w portalu Dziedzictwo Muzyki Polskiej w otwartym dostępie}
!!!IIIF:
!!!ONB-nifc:
!!!OMD: Tempo di tango
!!!AIN: 1 piano 1 vox
!!!key:
**kern	**kern	**dynam	**kern	**text	**text
*part2	*part2	*part2	*part1	*part1	*part1
*staff3	*staff2	*	*staff1	*staff1	*staff1
*I"FORTEPIAN.	*	*	*I"ŚPIEW.	*	*
*Ipiano	*	*	*Ivox	*	*
*ICklav	*	*	*ICvox	*	*
*IGacmp	*	*	*IGsolo	*	*
*clefF4	*clefG2	*	*clefG2	*	*
*k[b-]	*k[b-]	*	*k[b-]	*	*
*d:	*d:	*	*d:	*	*
*M2/4	*M2/4	*	*M2/4	*	*
*>[A,B,B1,B,B2,A,B,B1,B,B2]	*>[A,B,B1,B,B2,A,B,B1,B,B2]	*	*>[A,B,B1,B,B2,A,B,B1,B,B2]	*	*
=1	=1	=1	=1	=1	=1
*>A	*>A	*	*>A	*	*
!	!	!LO:DY:rj	!	!	!
8GG\L 8G	8b-\L 8dd	f	2r	.	.
8B-\J 8d	16g\L 16b-	.	.	.	.
.	16a\JJ	.	.	.	.
8EE\L 8E	16g\LL	.	.	.	.
.	16a\	.	.	.	.
8G\J 8B- 8d	16b-\	.	.	.	.
.	16dd\JJ	.	.	.	.
=2	=2	=2	=2	=2	=2
8FF\L 8F	8a\L 8dd	.	2r	.	.
8F\J 8A 8d	16a\L	.	.	.	.
.	16g\JJ	.	.	.	.
8DD\L 8D	16f\LL	.	.	.	.
.	16g\	.	.	.	.
8F\J 8A 8d	16a\	.	.	.	.
.	16dd\JJ	.	.	.	.
=3	=3	=3	=3	=3	=3
8BBn\L 8Bn	8g#X\L 8dd 8ff	.	2r	.	.
8BB-X\J 8B-X	16g#\L 16ee	.	.	.	.
.	16g#\JJ 16dd	.	.	.	.
8AA\L 8A	16gn\LL 16cc#X	.	.	.	.
.	16g\ 16dd	.	.	.	.
8AA:\J 8E: 8c#X:	16a\ 16ee	.	.	.	.
.	16a\JJ 16ff	.	.	.	.
=4	=4	=4	=4	=4	=4
8DD/L 8D	8f\L 8a 8dd	.	2r	.	.
8AAA/J 8AA	8a\J 8cc#X 8gg 8aa	.	.	.	.
8DDD/ 8DD	8dd\ 8ff 8aa 8ddd	.	.	.	.
8r	8r	.	.	.	.
!!LO:LB:g=original
=5||	=5||	=5||	=5||	=5||	=5||
*	*	*	*	*v:1	*v:2
8DD/L 8D	8d\L 8dd	.	8d/	O-	Świt
8FF/ 8F	8f\ 8ff	.	8f/	-czy	przy-
8AA/ 8A	8a\ 8aa	.	8a/	czar-	-cho-
8D/J 8d	8dd\J 8ddd	.	8dd\	-ne,	-dzi
=6	=6	=6	=6	=6	=6
8AAA/ 8AA	16a\LL 16cc#X	.	16cc#X\	o-	pe-
.	16bn\JJ 16dd	.	16dd\	-czy	-łen
8r	4.cc#\ 4.ee	.	4.ee\	twe	drżeń,
8G\L 8A 8c#X	.	.	.	.	.
8AA\J	.	.	.	.	.
=7	=7	=7	=7	=7	=7
8AAA\L	16cc#X\LL 16ee	.	16ee\	Wciąż	Znów
.	16bn\ 16dd	.	16dd\	na-	na
8G\J 8A 8c#X	16a\ 16cc#	.	16cc#X\	-dem-	chwi-
.	16b\JJ 16dd	.	16dd\	-ną	-lę
8AAA/L 8AA	8g\L 8cc# 8ee	.	8ee\	daw-	żal
8CC#X/J 8C#X	8b-X\J 8ee 8gg	.	8gg\	-ną	w mej
=8	=8	=8	=8	=8	=8
8DD\L 8D	16a\LL 16ff	.	16ff\	ma-	du-
.	16g\JJ 16ee	.	16ee\	-ją	-szy
8F\J 8A 8d	4.f/ 4.dd	.	4.dd\	moc,	ścichł.
16FF/LL 16F	.	.	.	.	.
16EE/J 16E	.	.	.	.	.
8DD/J 8D	.	.	.	.	.
!!LO:LB:g=original
=9	=9	=9	=9	=9	=9
*	*	*	*	*v:1	*v:2
4DD/ 4D	8f#X\L 8dd	.	8dd\	Każ-	Pró-
.	8c\ 8a	.	8a/	-dej	-żno
8DD/L 8D	8d\ 8b-	.	8b-\	no-	pa-
8FF#X/J 8F#X	8e-X\J 8cc	.	8cc\	-cy	-trzę
=10	=10	=10	=10	=10	=10
8GG\L 8G	(16d/LL 16b-	.	(16b-\	wi-	w śnie-
.	16c/JJ) 16a	.	16a/)	-dzę	-żny
8D\J	4.B-/ 4.g	.	4.g/	je,	dzień
8BB-/L	.	.	.	.	.
8GG/J	.	.	.	.	.
=11	=11	=11	=11	=11	=11
4CC:/ 4GG: 4E:	8c/L 8e 8cc	.	8cc\	Lśnią	Nie-
.	8e/ 8g	.	8g/	na-	-ma
8CC/L 8C	8c/ 8e 8a	.	8a/	-dem-	już
8EE/J 8E	8c/J 8e 8g 8b-	.	8b-\	-ną,	prze-
=12	=12	=12	=12	=12	=12
.	(16qqf/LL	.	.	.	.
.	16qqg/	.	.	.	.
.	16qqg#X/JJ	.	.	.	.
4FF/ 4C 4F	16a/LL)	.	16a/	w każ-	-dem-
.	16gn/	.	16g/	-dą	-ną
.	16f/	.	16f/	ciem-	ciem-
.	16a/JJ	.	16a/	-ną	-nych
.	(16qqe/LL	.	.	.	.
.	16qqf/	.	.	.	.
.	16qqf#X/JJ	.	.	.	.
4AA:\ 4E: 4c#X:	16g/LL)	.	16g/	noc	o-
.	16fn/	.	16f/	Da-	-czu
.	16e/	.	16e/	-le-	twych
.	16f/JJ	.	16f/	-ki	I
!!LO:LB:g=original
=13	=13	=13	=13	=13	=13
*	*	*	*	*v:1	*v:2
8DD/L 8D	8d\L 8dd	.	8d/	sen	wiem,
8FF/ 8F	8f\ 8ff	.	8f/	ko-	że
8AA/ 8A	8a\ 8aa	.	8a/	-łu-	już
8D/J 8d	8dd\J 8ddd	.	8dd\	-je,	nie
=14	=14	=14	=14	=14	=14
8AAA/ 8AA	16a\LL 16cc#X	.	16cc#X\	ni-	bę-
.	16bn\JJ 16dd	.	16dd\	-by	-dę
8r	4.cc#\ 4.ee	.	4.ee\	ćma,	mógł
8G\L 8A 8c#X	.	.	.	.	.
8AA\J	.	.	.	.	.
=15	=15	=15	=15	=15	=15
8AAA\L	16cc#X\LL 16ee	.	16ee\	Wie-	Zna-
.	16bn\ 16dd	.	16dd\	-ki	-leźć
8G\J 8A 8c#X	16a\ 16cc#	.	16cc#X\	trud-	cię
.	16b\JJ 16dd	.	16dd\	-na	na
8AAA/L 8AA	8g\L 8cc# 8ee	.	8ee\	noc	żad-
8CC#X/J 8C#X	8b-X\J 8ee 8gg	.	8gg\	bez-	-nej
=16	=16	=16	=16	=16	=16
8DD\L 8D	16a\LL 16ff	.	16ff\	-sen-	z mo-
.	16g\JJ 16ee	.	16ee\	-na	-ich
8F\J 8A 8d	4.f/ 4.dd	.	4.dd\	trwa	dróg.
16FF/LL 16F	.	.	.	.	.
16EE/J 16E	.	.	.	.	.
8DD/J 8D	.	.	.	.	.
!!LO:PB:g=original
=17	=17	=17	=17	=17	=17
*	*	*	*	*v:1	*v:2
!LO:N:vis=4	!	!	!	!	!
8GG:\ 8D: 8B-:	8b-\L 8dd	.	8dd\	Żal	Wiem,
8r	16cc\L	.	16cc\	znów	że
.	16b-\JJ	.	16b-\	mi	mi
4r	16a\LL	.	16a/	du-	już
.	16g\	.	16g/	-szę	nie
.	16a\	.	16a/	mro-	wró-
.	16b-\JJ	.	16b-\	-czy,	-cą
=18	=18	=18	=18	=18	=18
!LO:N:vis=4	!	!	!	!	!
8DD:/ 8AA: 8F:	8f/L 8a	.	8a/	Dal	Snem
8r	16g/L	.	16g/	ca-	je-
.	16f/JJ	.	16f/	-ła	-no
4r	16e/LL	.	16e/	ma	mnie
.	16d/	.	16d/	twe	za-
.	16e/	.	16e/	o-	-smu-
.	16f/JJ	.	16f/	-czy,	-cą,
=19	=19	=19	=19	=19	=19
8EE\L 8BBn	8d/L 8e	.	8e/	Noc	snam
8G#X\J 8d 8e	16g#X/L	.	16g#X/	ca-	mi
.	16bn/JJ	.	16bn\	-ła	za-
8G#\L 8d 8e	16dd\LL	.	16dd\	o-	-kłó-
.	16ff\	.	16ff\	-czy	-cą
8EE\J 8E	16ee\	.	16ee\	two-	ser-
.	16dd\JJ	.	16dd\	-je	-ca
=20	=20	=20	=20	=20	=20
8AA/ 8E	8g\L 8a 8cc#X	.	4cc#X\	ma.	stuk
16B-\LL	16b-X\L	.	.	.	.
16G#X\JJ	16g#X\JJ	.	.	.	.
!LO:TX:t=P:problem=fermata na cezurze	!LO:TX:t=P:problem=fermata na cezurze	!	!	!	!
16A;Z\	16a;Z\	.	8r;	.	.
16r	16r	.	.	.	.
8r	16g#X/LL	.	16g#X/	O-	O-
.	16a/JJ	.	16a/	-czy	-czy
!!LO:LB:g=original
=21!|:	=21!|:	=21!|:	=21!|:	=21!|:	=21!|:
*>B	*>B	*	*>B	*	*
*	*	*	*	*v:1	*v:2
!	!	!	!LO:TX:a:t=REFRAIN.	!	!
8EE/L 8E	8g/L 8b-	.	8b-\	czar-	czar-
8G/J 8A 8c#X	16g/L 16a	.	16a/	-ne,	-ne,
.	16g/JJ 16a	.	16a/	roz-	roz-
8G/L 8A 8c#	16g/LL 16b-	.	16b-\	-war-	-war-
.	16a/	.	16a/	-te	-te
8AAA/J 8AA	16e/ 16g#X	.	16g#X/	i	i
.	16e/JJ 16a	.	16a/	o-	o-
=22	=22	=22	=22	=22	=22
8DD\L 8D	8f/L 8b-	.	8b-\	-grom-	-grom-
8F\J 8A 8d	8f/J 8a	.	8a/	-ne,	-ne,
8FF/L 8F	8f/L 8a	.	8a/	.	.
8DD/J 8D	16g#X/L	.	16g#X/	O-	O-
.	16a/JJ	.	16a/	-czy	-czy
=23	=23	=23	=23	=23	=23
8EE\L 8E	8gn\L 8b- 8dd	.	8dd\	czar-	czar-
8G\J 8A 8c#X	16g\L 16cc#X	.	16cc#X\	-ne,	-ne,
.	16g\JJ 16cc#	.	16cc#\	u-	u-
8G/L 8A 8c#	16g\LL 16dd	.	16dd\	-par-	-par-
.	16g\ 16cc#	.	16cc#\	-te,	-te,
8AAA/J 8AA	16g\ 16bn	.	16bn\	nie-	nie-
.	16g\JJ 16cc#	.	16cc#\	-przy-	-przy-
=24	=24	=24	=24	=24	=24
8DD\L 8D	8f\L 8a 8ee	.	8ee\	-tom-	-tom-
8F\J 8A 8d	8f\J 8a 8dd	.	8dd\	-ne,	-ne,
8FF/L 8F	8f\L 8a 8dd	.	8dd\	.	.
8FF#X/J 8F#X	16a\L 16cc 16dd	.	16dd\	O-	O-
.	16a\JJ 16cc 16dd	.	16dd\	-czy	-czy
!!LO:LB:g=original
=25	=25	=25	=25	=25	=25
*	*	*	*	*v:1	*v:2
8GG\L 8G	8b-\L 8dd	.	8dd\	czar-	czar-
8B-\J 8d	16g\L 16b-	.	16b-\	-ne,	-ne,
.	16a\JJ	.	16a/	przym-	przym-
8EE\L 8E	16g\LL	.	16g/	-glo-	-glo-
.	16a\	.	16a/	-ne,	-ne,
8G\J 8B- 8d	16b-\	.	16b-\	Naj-	Naj-
.	16dd\JJ	.	16dd\	-łas-	-łas-
=26	=26	=26	=26	=26	=26
8FF\L 8F	8f\L 8a 8dd	.	8dd\	-kaw-	-kaw-
8F\J 8A 8d	16a\L	.	16a/	-sze,	-sze,
.	16g\JJ	.	16g/	sza-	sza-
8DD\L 8D	16f\LL	.	16f/	-lo-	-lo-
.	16g\	.	16g/	-ne,	-ne,
8F\J 8A 8d	16a\	.	16a/	Już	Już
.	16dd\JJ	.	16dd\	na	na
=27	=27	=27	=27	=27	=27
8BBBn\L 8BBn	8g#X\L 8dd 8ff	.	8ff\	zaw-	zaw-
8E\J 8G#X 8Bn 8d	16g#\L 16ee	.	16ee\	-sze	-sze
.	16g#\JJ 16dd	.	16dd\	stra-	stra-
!	!	!	!LO:SIC:s:v=16cc#\	!	!
8E\L 8G# 8B 8d	16g#\LL 16cc#X	.	16cc\	-co-	-co-
.	16g#\ 16dd	.	16dd\	-ne	-ne
8EE\J 8E	16g#\ 16ee	.	16ee\	o-	o-
.	16g#\JJ 16ff	.	16ff\	-czy	-czy
=28	=28	=28	=28	=28	=28
8AA\L 8A	8a\L 8cc#X 8ee	.	4ee\	twe!	twe!
(16B-\L	(16b-X\L	.	.	.	.
16G#X\JJ	16g#X\JJ	.	.	.	.
16A\)	16a\)	.	8r	.	.
16r	16r	.	.	.	.
8r	16g#/LL	.	16g#X/	Na-	Już
.	16a/JJ	.	16a/	-da-	mi
!!LO:LB:g=original
=29	=29	=29	=29	=29	=29
*	*	*	*	*v:1	*v:2
8EE/L 8E	8g/L 8b-	.	8b-\	-rem-	was
8G/J 8A 8c#X	16g/L 16a	.	16a/	-nie	nie
.	16g/JJ 16a	.	16a/	się	mi-
8G/L 8A 8c#	16g/LL 16b-	.	16b-\	bro-	-ło-
.	16a/	.	16a/	-nię	-wać
8AAA/J 8AA	16e/ 16g#X	.	16g#X/	im	ca-
.	16e/JJ 16a	.	16a/	w roz-	-ło-
=30	=30	=30	=30	=30	=30
8DD\L 8D	8f/L 8b-	.	8b-\	-ter-	-wa-
8F\J 8A 8d	[8f/J 8a	.	[8a/	-ce,	-nych!
8FF/L 8F	8f/L] 8a	.	8a/]	.	.
8DD/J 8D	16g#X/L	.	16g#X/	Pa-	Już
.	16a/JJ	.	16a/	-trzą	mi
=31	=31	=31	=31	=31	=31
!	!	!	!LO:N:vis=4	!	!
8EE\L 8E	8g\L 8b- 8dd	.	8dd\	we	was
8G\J 8A 8c#X	16g\L 16cc#X	.	16cc#X\	mnie	nie
.	16g\JJ 16cc#	.	16cc#\	i	ca-
8G/L 8A 8c#	16g\LL 16dd	.	16dd\	pło-	-ło-
.	16g\ 16cc#	.	16cc#\	-nie	-wać
8AAA/J 8AA	16g\ 16bn	.	16bn\	bie-	u-
.	16g\JJ 16cc#	.	16cc#\	-dne	-ko-
=32	=32	=32	=32	=32	=32
8DD\L 8D	8f\L 8a 8ee	.	8ee\	ser-	-cha-
8F\J 8A 8d	[8f\J [8a [8dd	.	[8dd\	-ce	-nych!
8FF/L 8F	8f\L] 8a] 8dd]	.	8dd\]	.	.
8FF#X/J 8F#X	16a\L 16cc 16dd	.	16dd\	I	Nim
.	16a\JJ 16cc 16dd	.	16dd\	mi-	o-
!!LO:LB:g=original
=33	=33	=33	=33	=33	=33
*	*	*	*	*v:1	*v:2
8GG\L 8G	8b-\L 8dd	.	8dd\	-łu-	-de-
8B-\J 8d	16g\L 16b-	.	16b-\	-je	-mnie
.	16a\JJ	.	16a/	i	u-
8EE\L 8E	16g\LL	.	16g/	cze-	-cie-
.	16a\	.	16a/	-ka	-kły
8G\J 8B- 8d	16b-\	.	16b-\	I	Już
.	16dd\JJ	.	16dd\	ca-	na
=34	=34	=34	=34	=34	=34
8FF\L 8F	8f\L 8a 8dd	.	8dd\	-łu-	śmierć
8F\J 8A 8d	16a\L	.	16a/	-je	mnie
.	16g\JJ	.	16g/	z da-	u-
8DD\L 8D	16f\LL	.	16f/	-le-	-rze-
.	16g\	.	16g/	-ka	-kły
8F\J 8A 8d	16a\	.	16a/	Czar-	Czar-
.	16dd\JJ	.	16dd\	-ne	-ne
=35	=35	=35	=35	=35	=35
8BBn\L 8Bn	8g#X\L 8dd 8ff	.	8ff\	o-	o-
8BB-X\J 8B-X	16g#\L 16ee	.	16ee\	-czy,	-czy,
.	16g#\JJ 16dd	.	16dd\	naj-	naj-
8AA\L 8A	16gn\LL 16cc#X	.	16cc#X\	-droż-	-droż-
.	16g\ 16dd	.	16dd\	-sze	-sze
8AA:\J 8E: 8c#X:	16a\ 16ee	.	16ee\	o-	o-
.	16a\JJ 16ff	.	16ff\	-czy	-czy
=36	=36	=36	=36	=36	=36
*>B1	*>B1	*	*>B1	*	*
16DD/LL 16D	16d\LL 16dd	.	8dd\	twe!	twe!
16CC#X/ 16C#X	16c#X\ 16cc#X	.	.	.	.
16DD/ 16D	16d\ 16dd	.	8r	.	.
16EE/JJ 16E	16e\JJ 16ee	.	.	.	.
16FF/LL 16F	16f\LL 16ff	.	4r	.	.
16GG/ 16G	16g\ 16gg	.	.	.	.
16GG#X/ 16G#X	16g#X\ 16gg#X	.	.	.	.
16AA/JJ 16A	16a\JJ 16aa	.	.	.	.
=37:|!	=37:|!	=37:|!	=37:|!	=37:|!	=37:|!
*>B2	*>B2	*	*>B2	*	*
8DD/L 8D	8f\L 8a 8dd	.	4dd\	twe!	twe!
8AAA/J 8AA	8a\J 8cc#X 8gg 8aa	.	.	.	.
8DDD/ 8DD	8dd\ 8ff 8aa 8ddd	.	4r	.	.
8r	8r	.	.	.	.
==	==	==	==	==	==
*-	*-	*-	*-	*-	*-
!!!system-decoration: s1{(s2,s3)}
!!!RDF**kern: Z = caesura
!!!RDF**kern: < = below
!!!RDF**kern: > = above
!!!ENC: Berenika Jozajtis
!!!END: 2023-08-27
!!!ENC: Marta Chmielewska
!!!END: 2023-09-23
